X:1
T:’Tis a Glorious Church
T:’Tis a Glorious Church
T:E. T. Rinehart
T:Arranged by E. T. Rinehart, 1901
T:Public Domain Courtesy of the Cyber Hymnal™
T:Public Domain Courtesy of the Cyber Hymnal™
C:E. T. Rinehart
Z:Public Domain
Z:Courtesy of the Cyber Hymnal™
%%score ( 1 2 ) ( 3 4 )
L:1/8
Q:1/4=108
M:4/4
K:Bb
V:1 treble 
V:2 treble 
V:3 bass 
V:4 bass 
V:1
 [DF][DF] | [DB]2 [DB]2 [DB]2 [DF]2 | [EG]2 [EB]2 ([EG] [DF]3) | [DB]2 [DB]>[FB] [Fc]2 [FB]>[Fd] | %4
w: 1.~Did you|ev- er hear such|words be- fore, *|Washed in the blood of the|
w: 2.~Did you|hear what Je- sus|said to me, *|Washed in the blood of the|
w: 3.~I have|plunged be- neath the|crim- son tide, *|Washed in the blood of the|
w: 4.~O lift|up your heads, ye|sons of light, *|Washed in the blood of the|
w: 5.~If I|get there be- fore|you do, ~ *|Washed in the blood of the|
w: 6.~When that|il- lus- tri- ous|day shall rise, *|Washed in the blood of the|
 [Fc]6 [DB]2 | [Fd]2 [Fd]2 [DB]2 [DF]2 | [EG]2 [EB]2 ([EG] [DF]3) | %7
w: Lamb, As|“go in peace and|sin no more,” *|
w: Lamb, “Your|sins are par- doned,|you are free,” *|
w: Lamb, And|now by faith I’m|sanc- ti- fied, *|
w: Lamb, For|Zi- on now is|just in sight, *|
w: Lamb, How|glad I’ll be to|wel- come you, *|
w: Lamb, In|robes of vic- tory|through the skies, *|
 [DB]2 [DB]>[DB] [Fd]2 [Ec]>[Fc] | [DB]4 z2 ||"^Refrain" [DB][Ec] | [Fd]3 [Ec] [DB]3 [DF] | %11
w: Washed in the blood of the|Lamb.|||
w: Washed in the blood of the|Lamb.|||
w: Washed in the blood of the|Lamb.|’Tis a|glor- ious church with-|
w: Washed in the blood of the|Lamb.|||
w: Washed in the blood of the|Lamb.|||
w: Washed in the blood of the|Lamb.|||
 [EG]2 [GB]>[EG] [EG] [DF]3 | [FB]2 [FB][FB] [Fc]2 [FB][Bd] | [Ac]6 [FB][Fc] | [Fd]3 [Ec] [DB]3 F | %15
w: ||||
w: ||||
w: out spot or wrink- le,|Washed in the blood of the|Lamb, ’Tis a|glor- ious church with-|
w: ||||
w: ||||
w: ||||
 [EG]2 [GB]>[EG] [EG] [DF]3 | [DB]2 [DB]>[DB] [Fd]2 [Ec]>[Ec] | [DB]6 |] %18
w: |||
w: |||
w: out spot or wrink- le,|Washed in the blood of the|Lamb.|
w: |||
w: |||
w: |||
V:2
 x2 | x8 | x8 | x8 | x8 | x8 | x8 | x8 | x6 || x2 | x8 | x8 | x8 | x8 | x7 F | x8 | x8 | x6 |] %18
V:3
 [B,,B,][B,,B,] | [B,,F,]2 [B,,F,]2 [B,,F,]2 [B,,B,]2 | [E,B,]2 [E,G,]2 [B,,B,]4 | %3
 [B,,F,]2 [B,,F,]>[D,B,] [F,A,]2 [B,D]>B, | [F,A,]6 [B,,F,]2 | %5
 [B,,B,]2 [B,,B,]2 [B,,F,]2 [B,,B,]2 | [E,B,]2 [E,G,]2 [B,,B,]4 | %7
 [G,B,]2 [G,B,]>[G,B,] [F,B,]2 [F,A,]>[F,A,] | [B,,B,]4 z2 || [B,,B,][B,,B,] | %10
 [B,,B,]3 [B,,F,] [B,,F,]3 [B,,B,] | [E,B,]2 [E,B,]>[E,B,] [B,,B,] [B,,B,]3 | %12
 [B,D]2 [B,D][B,D] [F,E]2 [F,D][F,F] | [F,F]6 [D,B,][F,A,] | B,3 [F,A,] [G,B,]3 [D,B,] | %15
 [E,B,]2 [E,B,]>[E,B,] [B,,B,] [B,,B,]3 | [G,B,]2 [G,B,]>[G,B,] [F,B,]2 [F,A,]>[F,A,] | [B,,B,]6 |] %18
V:4
 x2 | x8 | x8 | x15/2 B,/ | x8 | x8 | x8 | x8 | x6 || x2 | x8 | x8 | x8 | x8 | B,3 x5 | x8 | x8 | %17
 x6 |] %18

